img/sc10-cloud-archictecture/stream.svg

<svg version="1.1" viewBox="0 0 24 24" xmlns="http://www.w3.org/2000/svg">
 <path d="m12.75 10.25c0-0.55228 0.4477-1 1-1h6.25c0.5523 0 1 0.44772 1 1v4.75c0 0.5523-0.4477 1-1 1h-5c-1.3807 0-2.5 1.1193-2.5 2.5v3.5c0 0.5523-0.4477 1-1 1h-6.25c-0.55228 0-1-0.4477-1-1v-4.75c0-0.5523 0.44772-1 1-1h5c1.3807 0 2.5-1.1193 2.5-2.5v-0.75z" clip-rule="evenodd" fill="#f47f8c" fill-rule="evenodd"/>
 <path d="m11.5 2c0-0.55228 0.4477-1 1-1h6.25c0.5523 0 1 0.44772 1 1v4.75c0 0.55228-0.4477 1-1 1h-5c-1.3807 0-2.5 1.1193-2.5 2.5v3.5c0 0.5523-0.4477 1-1 1h-6.25c-0.55228 0-1-0.4477-1-1v-4.75c0-0.55228 0.44772-1 1-1h5c1.3807 0 2.5-1.1193 2.5-2.5z" clip-rule="evenodd" fill="#eb001a" fill-rule="evenodd"/>
</svg>

<svg width="24" height="24" viewBox="0 0 24 24" fill="none" xmlns="http://www.w3.org/2000/svg">
<path fill-rule="evenodd" clip-rule="evenodd" d="M12.75 10.25C12.75 9.69772 13.1977 9.25 13.75 9.25H20C20.5523 9.25 21 9.69772 21 10.25V15C21 15.5523 20.5523 16 20 16H15.5H15C13.6193 16 12.5 17.1193 12.5 18.5V19V22C12.5 22.5523 12.0523 23 11.5 23H5.25C4.69772 23 4.25 22.5523 4.25 22V17.25C4.25 16.6977 4.69772 16.25 5.25 16.25H9.5H10.25C11.6307 16.25 12.75 15.1307 12.75 13.75V13V10.25Z" fill="#F47F8C"/>
<path fill-rule="evenodd" clip-rule="evenodd" d="M11.5 2C11.5 1.44772 11.9477 1 12.5 1H18.75C19.3023 1 19.75 1.44772 19.75 2V6.75C19.75 7.30228 19.3023 7.75 18.75 7.75H13.75C12.3693 7.75 11.25 8.86929 11.25 10.25V13.75C11.25 14.3023 10.8023 14.75 10.25 14.75H4C3.44772 14.75 3 14.3023 3 13.75V9C3 8.44772 3.44772 8 4 8H9C10.3807 8 11.5 6.88071 11.5 5.5V2Z" fill="#EB001A"/>
</svg>
